X: 3
T:Full Rigged Ship
M:6/8
L:1/8
Q:100
C:Traditional
S:From The Boys of the Lough
R:Jig
O:Boys Of The Lough
A:Shetland
D:Boys of the Lough "Wish You Were Here"
K:G
|:e2a aea|aea b2a|e2f~g3|eag fed|
e2a aea|aea b2a|~g3 edB|A3A3:|!
|:efe edB|A2Bc3|BAG BAG|BcdE3|
efe edB|A2Bc2d|efe dBG|A3A3:|!
|:EFE EFE|EFE c3|EFE E2D|E2=F GEC|
EFE EFE|EFE c2d|efe dBG|A3A3:|
